; generated by PrusaSlicer 2.5.0 on 2022-10-02 at 01:06:45 UTC

; 

; external perimeters extrusion width = 0.45mm
; perimeters extrusion width = 0.45mm
; infill extrusion width = 0.45mm
; solid infill extrusion width = 0.45mm
; top infill extrusion width = 0.40mm
; first layer extrusion width = 0.42mm

M107
M104 S200 ; set temperature
;TYPE:Custom
;BEING::Starting Script
M140 S60		;Configuro temperatura inicial de la cama
M190 S60		;Espero temperatura inivisl de la cama

G90 ;Coordenadas absolutas
M82 ;Distancia absoluta para extrusion
G21 ;Unidades a milimetros

G28 ;Home
G1 Z10 F5000 ;Alejo extrusor por seguridad
G29 ;Calibracion de altura automatica
G1 Z50 F200 ;Levanto el eje Z 5cm para limpiar
;END::Starting Script
M109 S200 ; set temperature and wait for it to be reached
G21 ; set units to millimeters
G90 ; use absolute coordinates
M82 ; use absolute distances for extrusion
G92 E0
; Filament gcode
M107
;LAYER_CHANGE
;Z:0.35
;HEIGHT:0.35
G1 Z.35 F7800
G1 E-2 F2400
G92 E0
G1 X5.973 Y5.741 F7800
G1 E2 F2400
;TYPE:Skirt/Brim
;WIDTH:0.42
G1 F1800
G1 X6.692 Y5.12 E2.04771
G1 X7.675 Y4.464 E2.10699
G1 X8.524 Y4.036 E2.15471
G1 X9.729 Y3.613 E2.21882
G1 X10.888 Y3.382 E2.27809
G1 X11.835 Y3.312 E2.32579
G1 X188.165 Y3.312 E11.17503
G1 X189.437 Y3.43 E11.23917
G1 X190.365 Y3.639 E11.28692
G1 X191.566 Y4.076 E11.35102
G1 X192.607 Y4.633 E11.4103
G1 X193.627 Y5.378 E11.47368
G1 X194.548 Y6.287 E11.53862
G1 X195.133 Y7.037 E11.58634
G1 X195.783 Y8.137 E11.65049
G1 X196.361 Y9.635 E11.73105
G1 X196.618 Y10.887 E11.7952
G1 X196.688 Y11.832 E11.84278
G1 X196.69 Y15 E12.00173
G1 X196.293 Y17.27 E12.1174
G1 X195.644 Y18.592 E12.19128
G1 X20.644 Y293.592 E28.54989
G1 X19.09 Y295.294 E28.66555
G1 X17.051 Y296.368 E28.78122
G1 X15 Y296.69 E28.88541
G1 X11.737 Y296.685 E29.04915
G1 X10.466 Y296.553 E29.11329
G1 X8.918 Y296.124 E29.19392
G1 X7.392 Y295.367 E29.2794
G1 X6.615 Y294.82 E29.3271
G1 X5.741 Y294.027 E29.38633
G1 X4.924 Y293.044 E29.45046
G1 X4.416 Y292.24 E29.49819
G1 X3.911 Y291.173 E29.55745
G1 X3.613 Y290.271 E29.60513
G1 X3.382 Y289.113 E29.66439
G1 X3.31 Y288 E29.72034
G1 X3.31 Y12 E43.57165
G1 X3.382 Y10.888 E43.6276
G1 X3.639 Y9.635 E43.69178
G1 X4.076 Y8.434 E43.7559
G1 X4.632 Y7.394 E43.8151
G1 X5.18 Y6.615 E43.86289
G1 X5.932 Y5.785 E43.9191
G1 X6.187 Y6.016 F7800
G1 F1800
G1 X6.905 Y5.392 E43.96683
G1 X7.845 Y4.764 E44.02357
G1 X8.664 Y4.352 E44.06958
G1 X9.821 Y3.945 E44.13115
G1 X10.93 Y3.724 E44.18788
G1 X11.844 Y3.657 E44.23388
G1 X188.156 Y3.657 E53.08227
G1 X189.378 Y3.77 E53.14386
G1 X190.273 Y3.971 E53.18991
G1 X191.426 Y4.391 E53.25147
G1 X192.423 Y4.924 E53.3082
G1 X193.402 Y5.64 E53.36906
G1 X194.286 Y6.513 E53.43142
G1 X194.851 Y7.236 E53.47744
G1 X195.475 Y8.292 E53.53905
G1 X196.029 Y9.727 E53.61622
G1 X196.275 Y10.929 E53.67782
G1 X196.343 Y11.841 E53.7237
G1 X196.345 Y15 E53.88223
G1 X195.948 Y17.209 E53.99485
G1 X195.353 Y18.406 E54.06198
G1 X20.353 Y293.406 E70.42059
G1 X18.832 Y295.057 E70.53321
G1 X16.832 Y296.075 E70.64583
G1 X15 Y296.345 E70.73878
G1 X11.746 Y296.341 E70.9021
G1 X10.622 Y296.23 E70.95878
G1 X9.042 Y295.802 E71.04092
G1 X7.577 Y295.076 E71.123
G1 X6.827 Y294.548 E71.16901
G1 X5.99 Y293.789 E71.2257
G1 X5.206 Y292.845 E71.28728
G1 X4.716 Y292.07 E71.33331
G1 X4.232 Y291.049 E71.39002
G1 X3.945 Y290.179 E71.43601
G1 X3.725 Y289.07 E71.49272
G1 X3.655 Y288 E71.54655
G1 X3.655 Y12 E85.39786
G1 X3.724 Y10.93 E85.45168
G1 X3.971 Y9.727 E85.51331
G1 X4.391 Y8.574 E85.57489
G1 X4.923 Y7.578 E85.63154
G1 X5.452 Y6.827 E85.67763
G1 X6.147 Y6.061 E85.72955
G1 E83.72955 F2400
G92 E0
G1 X14.506 Y289.1 F7800
G1 E2 F2400
;TYPE:Perimeter
;WIDTH:0.42
G1 F1800
G1 X12.126 Y289.098 E2.11946
G1 X11.834 Y289.073 E2.13417
G1 X11.438 Y288.938 E2.15514
G1 X11.153 Y288.669 E2.17484
G1 X10.983 Y288.38 E2.19166
G1 X10.9 Y287.946 E2.21383
G1 X10.9 Y12.054 E16.05972
G1 X10.996 Y11.604 E16.08281
G1 X11.152 Y11.323 E16.09893
G1 X11.429 Y11.069 E16.11781
G1 X11.745 Y10.938 E16.13497
G1 X12.054 Y10.9 E16.15059
G1 X187.845 Y10.9 E24.97284
G1 X188.316 Y10.956 E24.99664
G1 X188.606 Y11.093 E25.01272
G1 X188.843 Y11.308 E25.02878
G1 X189.024 Y11.61 E25.04647
G1 X189.098 Y11.969 E25.06482
G1 X189.1 Y14.738 E25.20382
G1 X14.539 Y289.049 E41.52142
G1 X14.696 Y289.445 F7800
G1 F1800
G1 X12.079 Y289.443 E41.65275
G1 X11.582 Y289.379 E41.6779
G1 X11.26 Y289.236 E41.69557
G1 X10.984 Y289.021 E41.71311
G1 X10.727 Y288.673 E41.73485
G1 X10.602 Y288.35 E41.75222
G1 X10.555 Y287.967 E41.77158
G1 X10.555 Y12.033 E55.61959
G1 X10.601 Y11.656 E55.63863
G1 X10.768 Y11.254 E55.6605
G1 X10.981 Y10.981 E55.67786
G1 X11.254 Y10.768 E55.69522
G1 X11.656 Y10.601 E55.71709
G1 X12.033 Y10.555 E55.73613
G1 X187.845 Y10.555 E64.55944
G1 X188.418 Y10.623 E64.58836
G1 X188.8 Y10.803 E64.60956
G1 X189.113 Y11.087 E64.63076
G1 X189.34 Y11.466 E64.65293
G1 X189.443 Y11.943 E64.67743
G1 X189.445 Y14.839 E64.82275
G1 X14.728 Y289.394 E81.15491
G1 X14.885 Y289.79 F7800
;TYPE:External perimeter
G1 F1800
G1 X12.079 Y289.788 E81.29574
G1 X11.481 Y289.712 E81.32598
G1 X11.081 Y289.534 E81.34793
G1 X10.735 Y289.264 E81.36996
G1 X10.422 Y288.841 E81.39639
G1 X10.265 Y288.435 E81.41824
G1 X10.21 Y287.988 E81.4408
G1 X10.21 Y12.012 E95.29094
G1 X10.265 Y11.568 E95.31339
G1 X10.467 Y11.078 E95.33996
G1 X10.735 Y10.735 E95.36181
G1 X11.078 Y10.467 E95.38365
G1 X11.568 Y10.265 E95.41023
G1 X12.012 Y10.21 E95.43268
G1 X187.989 Y10.21 E104.26427
G1 X188.519 Y10.289 E104.29115
G1 X188.993 Y10.513 E104.31748
G1 X189.382 Y10.866 E104.34382
G1 X189.7 Y11.457 E104.37752
G1 X189.788 Y11.917 E104.40103
G1 X189.79 Y14.939 E104.55267
G1 X14.917 Y289.739 E120.89938
G1 X14.582 Y289.529 F7800
G1 E118.89938 F2400
G92 E0
G1 X14.511 Y149.197 F7800
G1 E2 F2400
;TYPE:Perimeter
G1 F1800
G1 X14.391 Y149.114 E2.00734
G1 X14.243 Y148.943 E2.01868
G1 X14.113 Y148.617 E2.03628
G1 X14.1 Y148.468 E2.04378
G1 X14.1 Y14.962 E8.74388
G1 X14.132 Y14.729 E8.75572
G1 X14.222 Y14.52 E8.76713
G1 X14.353 Y14.353 E8.77777
G1 X14.52 Y14.222 E8.78841
G1 X14.813 Y14.113 E8.80412
G1 X14.962 Y14.1 E8.81163
G1 X100.068 Y14.1 E13.08275
G1 X100.318 Y14.137 E13.09541
G1 X100.538 Y14.239 E13.10756
G1 X100.708 Y14.384 E13.11878
G1 X100.9 Y14.734 E13.13879
G1 X100.931 Y14.955 E13.15001
G1 X100.865 Y15.293 E13.16728
G1 X100.796 Y15.425 E13.17478
G1 X15.815 Y148.967 E21.11863
G1 X15.647 Y149.16 E21.13147
G1 X15.439 Y149.291 E21.14378
G1 X15.223 Y149.356 E21.15512
G1 X14.846 Y149.332 E21.17406
G1 X14.561 Y149.23 E21.18927
G1 X14.719 Y148.925 F7800
G1 F1800
G1 X14.531 Y148.753 E21.20207
G1 X14.445 Y148.468 E21.21699
G1 X14.445 Y14.962 E27.91709
G1 X14.518 Y14.697 E27.93091
G1 X14.697 Y14.518 E27.94358
G1 X14.962 Y14.445 E27.95741
G1 X100.068 Y14.445 E32.22852
G1 X100.35 Y14.528 E32.24326
G1 X100.522 Y14.714 E32.25594
G1 X100.586 Y14.958 E32.26861
G1 X100.505 Y15.24 E32.28335
G1 X15.524 Y148.782 E40.2272
G1 X15.299 Y148.977 E40.24212
G1 X15.047 Y149.02 E40.25492
G1 X14.777 Y148.941 E40.26906
G1 X14.881 Y148.62 F7800
;TYPE:External perimeter
G1 F1800
G1 X14.793 Y148.498 E40.27665
G1 X14.79 Y148.468 E40.27815
G1 X14.79 Y14.962 E46.97825
G1 X14.841 Y14.841 E46.98487
G1 X14.962 Y14.79 E46.99149
G1 X100.068 Y14.79 E51.26261
G1 X100.196 Y14.847 E51.26963
G1 X100.241 Y14.961 E51.27578
G1 X100.214 Y15.055 E51.28069
G1 X15.233 Y148.597 E59.22454
G1 X15.114 Y148.675 E59.23165
G1 X14.94 Y148.634 E59.24064
G1 X14.745 Y148.685 F7800
G1 E57.24064 F2400
G92 E0
G1 X14.511 Y281.313 F7800
G1 E2 F2400
;TYPE:Perimeter
G1 F1800
G1 X14.391 Y281.229 E2.00734
G1 X14.243 Y281.058 E2.01869
G1 X14.113 Y280.733 E2.03628
G1 X14.1 Y280.584 E2.04379
G1 X14.1 Y157.874 E8.20209
G1 X14.136 Y157.628 E8.21456
G1 X14.235 Y157.411 E8.22653
G1 X105.179 Y14.5 E16.72771
G1 X105.349 Y14.304 E16.74075
G1 X105.601 Y14.156 E16.75538
G1 X105.906 Y14.1 E16.77095
G1 X184.142 Y14.1 E20.69729
G1 X184.441 Y14.154 E20.71255
G1 X184.689 Y14.296 E20.72691
G1 X184.861 Y14.487 E20.73976
G1 X184.969 Y14.719 E20.75265
G1 X185.004 Y14.944 E20.76407
G1 X184.938 Y15.293 E20.78187
G1 X184.869 Y15.425 E20.78937
G1 X15.815 Y281.083 E36.59221
G1 X15.647 Y281.276 E36.60505
G1 X15.439 Y281.407 E36.61735
G1 X15.223 Y281.471 E36.6287
G1 X14.846 Y281.448 E36.64764
G1 X14.561 Y281.346 E36.66285
G1 X14.719 Y281.04 F7800
G1 F1800
G1 X14.531 Y280.868 E36.67565
G1 X14.445 Y280.584 E36.69057
G1 X14.445 Y157.874 E42.84887
G1 X14.526 Y157.596 E42.86339
G1 X105.469 Y14.685 E51.36457
G1 X105.572 Y14.567 E51.3724
G1 X105.817 Y14.453 E51.38595
G1 X105.906 Y14.445 E51.39045
G1 X184.142 Y14.445 E55.31679
G1 X184.321 Y14.477 E55.32594
G1 X184.47 Y14.563 E55.33456
G1 X184.638 Y14.817 E55.34983
G1 X184.641 Y15.099 E55.36398
G1 X184.578 Y15.24 E55.37176
G1 X15.524 Y280.898 E71.17459
G1 X15.299 Y281.092 E71.18952
G1 X15.047 Y281.136 E71.20232
G1 X14.777 Y281.057 E71.21646
G1 X14.881 Y280.736 F7800
;TYPE:External perimeter
G1 F1800
G1 X14.793 Y280.613 E71.22404
G1 X14.79 Y280.584 E71.22555
G1 X14.79 Y157.874 E77.38385
G1 X14.817 Y157.781 E77.38869
G1 X105.76 Y14.87 E85.88987
G1 X105.906 Y14.79 E85.8982
G1 X184.142 Y14.79 E89.82454
G1 X184.286 Y14.867 E89.83273
G1 X184.308 Y15.008 E89.83987
G1 X184.287 Y15.055 E89.84246
G1 X15.233 Y280.712 E105.6453
G1 X15.114 Y280.79 E105.65241
G1 X14.94 Y280.749 E105.6614
G1 X14.745 Y280.8 F7800
G1 E103.6614 F2400
G92 E0
G1 X187.684 Y11.003 F7800
G1 E2 F2400
;TYPE:Solid infill
;WIDTH:0.420192
G1 F1800
G1 X188.839 Y12.159 E2.08207
G1 X188.84 Y12.647 E2.1066
G1 X187.351 Y11.159 E2.21234
G1 X186.863 Y11.159 E2.23684
G1 X188.84 Y13.136 E2.37726
G1 X188.84 Y13.624 E2.40178
G1 X186.375 Y11.159 E2.57688
G1 X185.887 Y11.159 E2.60139
G1 X188.841 Y14.113 E2.81117
G1 X188.841 Y14.601 E2.8357
G1 X185.399 Y11.159 E3.08016
G1 X184.911 Y11.159 E3.10467
G1 X188.676 Y14.923 E3.37203
G1 X188.486 Y15.222 E3.38978
G1 X184.423 Y11.159 E3.67832
G1 X183.935 Y11.159 E3.70282
G1 X188.296 Y15.52 E4.01254
G1 X188.106 Y15.818 E4.03029
G1 X183.447 Y11.159 E4.36118
G1 X182.959 Y11.159 E4.38569
G1 X187.916 Y16.116 E4.73776
G1 X187.727 Y16.415 E4.75551
G1 X182.471 Y11.159 E5.12877
G1 X181.983 Y11.159 E5.15327
G1 X187.537 Y16.713 E5.5477
G1 X187.347 Y17.011 E5.56545
G1 X185.261 Y14.925 E5.71358
G1 X185.218 Y14.646 E5.72779
G1 X185.077 Y14.343 E5.74453
G1 X184.854 Y14.095 E5.7613
G1 X184.531 Y13.91 E5.77999
G1 X184.184 Y13.848 E5.7977
G1 X181.495 Y11.159 E5.98867
G1 X181.007 Y11.159 E6.01317
G1 X183.69 Y13.842 E6.2037
G1 X183.202 Y13.842 E6.22821
G1 X180.519 Y11.159 E6.41874
G1 X180.03 Y11.159 E6.44325
G1 X182.714 Y13.842 E6.63378
G1 X182.226 Y13.842 E6.65828
G1 X179.542 Y11.159 E6.84881
G1 X179.054 Y11.159 E6.87332
G1 X181.738 Y13.842 E7.06385
G1 X181.249 Y13.842 E7.08836
G1 X178.566 Y11.159 E7.27889
G1 X178.078 Y11.159 E7.30339
G1 X180.761 Y13.842 E7.49392
G1 X180.273 Y13.842 E7.51843
G1 X177.59 Y11.159 E7.70896
G1 X177.102 Y11.159 E7.73347
G1 X179.785 Y13.842 E7.924
G1 X179.297 Y13.842 E7.9485
G1 X176.614 Y11.159 E8.13904
G1 X176.126 Y11.159 E8.16354
G1 X178.809 Y13.842 E8.35407
G1 X178.321 Y13.842 E8.37858
G1 X175.638 Y11.159 E8.56911
G1 X175.15 Y11.159 E8.59362
G1 X177.833 Y13.842 E8.78415
G1 X177.345 Y13.842 E8.80865
G1 X174.662 Y11.159 E8.99918
G1 X174.174 Y11.159 E9.02369
G1 X176.857 Y13.842 E9.21422
G1 X176.369 Y13.842 E9.23873
G1 X173.686 Y11.159 E9.42926
G1 X173.198 Y11.159 E9.45376
G1 X175.881 Y13.842 E9.6443
G1 X175.393 Y13.842 E9.6688
G1 X172.71 Y11.159 E9.85933
G1 X172.222 Y11.159 E9.88384
G1 X174.905 Y13.842 E10.07437
G1 X174.417 Y13.842 E10.09888
G1 X171.734 Y11.159 E10.28941
G1 X171.246 Y11.159 E10.31391
G1 X173.929 Y13.842 E10.50444
G1 X173.441 Y13.842 E10.52895
G1 X170.758 Y11.159 E10.71948
G1 X170.27 Y11.159 E10.74399
G1 X172.953 Y13.842 E10.93452
G1 X172.465 Y13.842 E10.95902
G1 X169.782 Y11.159 E11.14956
G1 X169.294 Y11.159 E11.17406
G1 X171.977 Y13.842 E11.36459
G1 X171.489 Y13.842 E11.3891
G1 X168.806 Y11.159 E11.57963
G1 X168.318 Y11.159 E11.60414
G1 X171.001 Y13.842 E11.79467
G1 X170.513 Y13.842 E11.81917
G1 X167.83 Y11.159 E12.00971
G1 X167.342 Y11.159 E12.03421
G1 X170.025 Y13.842 E12.22474
G1 X169.537 Y13.842 E12.24925
G1 X166.854 Y11.159 E12.43978
G1 X166.366 Y11.159 E12.46429
G1 X169.049 Y13.842 E12.65482
G1 X168.561 Y13.842 E12.67932
G1 X165.878 Y11.159 E12.86985
G1 X165.39 Y11.159 E12.89436
G1 X168.073 Y13.842 E13.08489
G1 X167.585 Y13.842 E13.1094
G1 X164.902 Y11.159 E13.29993
G1 X164.414 Y11.159 E13.32444
G1 X167.097 Y13.842 E13.51497
G1 X166.609 Y13.842 E13.53947
G1 X163.926 Y11.159 E13.73
G1 X163.438 Y11.159 E13.75451
G1 X166.121 Y13.842 E13.94504
G1 X165.633 Y13.842 E13.96955
G1 X162.95 Y11.159 E14.16008
G1 X162.462 Y11.159 E14.18459
G1 X165.145 Y13.842 E14.37512
G1 X164.657 Y13.842 E14.39962
G1 X161.974 Y11.159 E14.59015
G1 X161.486 Y11.159 E14.61466
G1 X164.169 Y13.842 E14.80519
G1 X163.681 Y13.842 E14.8297
G1 X160.998 Y11.159 E15.02023
G1 X160.51 Y11.159 E15.04474
G1 X163.193 Y13.842 E15.23527
G1 X162.705 Y13.842 E15.25977
G1 X160.022 Y11.159 E15.45031
G1 X159.534 Y11.159 E15.47481
G1 X162.217 Y13.842 E15.66534
G1 X161.729 Y13.842 E15.68985
G1 X159.046 Y11.159 E15.88038
G1 X158.558 Y11.159 E15.90489
G1 X161.241 Y13.842 E16.09542
G1 X160.753 Y13.842 E16.11992
G1 X158.07 Y11.159 E16.31046
G1 X157.582 Y11.159 E16.33496
G1 X160.265 Y13.842 E16.52549
G1 X159.777 Y13.842 E16.55
G1 X157.094 Y11.159 E16.74053
G1 X156.606 Y11.159 E16.76504
G1 X159.289 Y13.842 E16.95557
G1 X158.801 Y13.842 E16.98007
G1 X156.118 Y11.159 E17.17061
G1 X155.63 Y11.159 E17.19511
G1 X158.313 Y13.842 E17.38564
G1 X157.825 Y13.842 E17.41015
G1 X155.142 Y11.159 E17.60068
G1 X154.654 Y11.159 E17.62519
G1 X157.337 Y13.842 E17.81572
G1 X156.849 Y13.842 E17.84023
G1 X154.166 Y11.159 E18.03076
G1 X153.677 Y11.159 E18.05526
G1 X156.361 Y13.842 E18.2458
G1 X155.873 Y13.842 E18.2703
G1 X153.189 Y11.159 E18.46083
G1 X152.701 Y11.159 E18.48534
G1 X155.385 Y13.842 E18.67587
G1 X154.897 Y13.842 E18.70038
G1 X152.213 Y11.159 E18.89091
G1 X151.725 Y11.159 E18.91541
G1 X154.408 Y13.842 E19.10595
G1 X153.92 Y13.842 E19.13045
G1 X151.237 Y11.159 E19.32099
G1 X150.749 Y11.159 E19.34549
G1 X153.432 Y13.842 E19.53602
G1 X152.944 Y13.842 E19.56053
G1 X150.261 Y11.159 E19.75106
G1 X149.773 Y11.159 E19.77557
G1 X152.456 Y13.842 E19.9661
G1 X151.968 Y13.842 E19.9906
G1 X149.285 Y11.158 E20.18114
G1 X148.797 Y11.158 E20.20564
G1 X151.48 Y13.842 E20.39617
G1 X150.992 Y13.842 E20.42068
G1 X148.309 Y11.158 E20.61121
G1 X147.821 Y11.158 E20.63572
G1 X150.504 Y13.842 E20.82625
G1 X150.016 Y13.842 E20.85076
G1 X147.333 Y11.158 E21.04129
G1 X146.845 Y11.158 E21.06579
G1 X149.528 Y13.842 E21.25633
G1 X149.04 Y13.842 E21.28083
G1 X146.357 Y11.158 E21.47137
G1 X145.869 Y11.158 E21.49587
G1 X148.552 Y13.842 E21.6864
G1 X148.064 Y13.842 E21.71091
G1 X145.381 Y11.158 E21.90144
G1 X144.893 Y11.158 E21.92595
G1 X147.576 Y13.842 E22.11648
G1 X147.088 Y13.842 E22.14098
G1 X144.405 Y11.158 E22.33152
G1 X143.917 Y11.158 E22.35602
G1 X146.6 Y13.842 E22.54656
G1 X146.112 Y13.842 E22.57106
G1 X143.429 Y11.158 E22.76159
G1 X142.941 Y11.158 E22.7861
G1 X145.624 Y13.842 E22.97663
G1 X145.136 Y13.842 E23.00114
G1 X142.453 Y11.158 E23.19167
G1 X141.965 Y11.158 E23.21618
G1 X144.648 Y13.842 E23.40671
G1 X144.16 Y13.842 E23.43121
G1 X141.477 Y11.158 E23.62175
G1 X140.989 Y11.158 E23.64625
G1 X143.672 Y13.842 E23.83678
G1 X143.184 Y13.842 E23.86129
G1 X140.501 Y11.158 E24.05182
G1 X140.013 Y11.158 E24.07633
G1 X142.696 Y13.842 E24.26686
G1 X142.208 Y13.842 E24.29137
G1 X139.525 Y11.158 E24.4819
G1 X139.037 Y11.158 E24.50641
G1 X141.72 Y13.842 E24.69694
G1 X141.232 Y13.842 E24.72144
G1 X138.549 Y11.158 E24.91198
G1 X138.061 Y11.158 E24.93648
G1 X140.744 Y13.842 E25.12701
G1 X140.256 Y13.842 E25.15152
G1 X137.573 Y11.158 E25.34205
G1 X137.085 Y11.158 E25.36656
G1 X139.768 Y13.842 E25.55709
G1 X139.28 Y13.842 E25.5816
G1 X136.597 Y11.158 E25.77213
G1 X136.109 Y11.158 E25.79664
G1 X138.792 Y13.842 E25.98717
G1 X138.304 Y13.842 E26.01167
G1 X135.621 Y11.158 E26.20221
G1 X135.133 Y11.158 E26.22671
G1 X137.816 Y13.842 E26.41725
G1 X137.328 Y13.842 E26.44175
G1 X134.645 Y11.158 E26.63228
G1 X134.157 Y11.158 E26.65679
